T: Joy Go With My Love
M: 6/8
L: 1/8
K: Dmaj
g |:  {g}f2 A AeA | edB Bdg | {g}f2 A AeA | edB    A2 g |
{g}f2 A AeA | edB Bdg | gfd fdB      | c2A A2 g :|
fga    aeg      | feB Bdg    | fga    aeg      | fga    aAg   |
fga    aeg      | feB Bdg    | gfd    edB      | c2A A2 g :|
</html>
